X: 44
M: 4/4
L: 1/8
K: D
"a."A>A |\
[f2A2][f2A2] [e2A2][e2A2] | d2A2 AFAd | c2EF GFGA | B2A2 AGF[AD] |
[f2A2][f2A2] [e2A2][e2A2] | d2"c."AA AFAd | c2cB AGFE | D2d2 d2 :|
P: Var:
"a."D2 || "b."z2 || "c."A2 |] y8 y8 y8 y8 y8 y8 y8 y8


